X:0449
T:The Rakish Highland man.
T:The Rakish Highlandman or Jack Murray's 4 Herrings. [title from index]
M:6/8
L:1/8
Q:3/8=120
I: :: ::
Z:Jack Campin * www.campin.me.uk * 2009
K:E Dorian
E2B B2A|GBG E3 |FAF D2G|FAF D3 |
E2B B2A|GBG E2G|FAF D2F|E3  E3::
B2A B2c|d2c d3 |FAF D2G|FAF D3 |
B2A B2c|d2c d3 |FAF D2F|E3  E3:|

